X:211
T:Reel 211
M:4/4
K:Amaj
L:1/8
E|AGAE CA,A,C|B,BB^A BFFE|AGAE CA,EC|DFED CA,A,G|AGAE CA,A,C|DCEC DB,B,B|AcBG AGFE|FAED CA,A,|D|CEA,E CEA,E|DFB,A, G,A,FE|CA,EA, CA,A,C|DFED CA,A,D|CA,E,A, CEA,C|DCB,C DEFG|AGAE FAEC|DFED CA,A,|
